docs/local/img/sprites/word.style.svg

<svg width="115" height="198" viewBox="0 0 115 198" xmlns="http://www.w3.org/2000/svg">
<path d="M50.82 92.5979C50.82 91.6139 50.958 90.6719 51.234 89.7719C51.522 88.8719 51.888 88.1579 52.332 87.6299L54.15 88.4399C53.754 88.9439 53.424 89.5679 53.16 90.3119C52.896 91.0559 52.764 91.8179 52.764 92.5979C52.764 93.2579 52.836 93.7919 52.98 94.1999C53.124 94.6079 53.316 94.9079 53.556 95.0999C53.808 95.2919 54.09 95.3879 54.402 95.3879C54.786 95.3879 55.092 95.2499 55.32 94.9739C55.56 94.6979 55.746 94.3379 55.878 93.8939C56.022 93.4619 56.154 92.9759 56.274 92.4359C56.394 91.9079 56.532 91.3739 56.688 90.8339C56.856 90.3059 57.066 89.8199 57.318 89.3759C57.582 88.9439 57.93 88.5899 58.362 88.3139C58.794 88.0379 59.346 87.8999 60.018 87.8999C60.702 87.8999 61.326 88.0799 61.89 88.4399C62.466 88.8119 62.922 89.3699 63.258 90.1139C63.606 90.8699 63.78 91.8239 63.78 92.9759C63.78 93.7319 63.684 94.4819 63.492 95.2259C63.3 95.9699 63.024 96.6179 62.664 97.1699L60.846 96.4319C61.182 95.8679 61.428 95.2859 61.584 94.6859C61.752 94.0859 61.836 93.5099 61.836 92.9579C61.836 92.3099 61.758 91.7819 61.602 91.3739C61.446 90.9779 61.242 90.6839 60.99 90.4919C60.738 90.3119 60.45 90.2219 60.126 90.2219C59.742 90.2219 59.43 90.3539 59.19 90.6179C58.962 90.8939 58.782 91.2479 58.65 91.6799C58.518 92.1239 58.386 92.6159 58.254 93.1559C58.134 93.6959 57.996 94.2299 57.84 94.7579C57.684 95.2979 57.48 95.7839 57.228 96.2159C56.976 96.6599 56.634 97.0139 56.202 97.2779C55.77 97.5539 55.224 97.6919 54.564 97.6919C53.892 97.6919 53.268 97.5059 52.692 97.1339C52.128 96.7739 51.672 96.2159 51.324 95.4599C50.988 94.7039 50.82 93.7499 50.82 92.5979ZM51 105.092L61.62 105.092L61.62 100.916L63.6 100.916L63.6 111.608L61.62 111.608L61.62 107.432L51 107.432L51 105.092ZM51 118.967L55.986 118.967L54.546 119.489L63.6 114.017L63.6 116.519L56.31 120.911L56.31 119.507L63.6 123.935L63.6 126.239L54.546 120.767L55.986 121.307L51 121.307L51 118.967ZM51 130.313L63.6 130.313L63.6 132.653L52.98 132.653L52.98 139.241L51 139.241L51 130.313ZM58.362 145.949L58.362 152.213L56.436 152.213L56.436 145.949L58.362 145.949ZM52.962 146.129L52.962 153.239L51 153.239L51 143.789L63.6 143.789L63.6 152.987L61.638 152.987L61.638 146.129L52.962 146.129Z"/>
<path opacity="0.5" d="M50.82 61.5979C50.82 60.6139 50.958 59.6719 51.234 58.7719C51.522 57.8719 51.888 57.1579 52.332 56.6299L54.15 57.4399C53.754 57.9439 53.424 58.5679 53.16 59.3119C52.896 60.0559 52.764 60.8179 52.764 61.5979C52.764 62.2579 52.836 62.7919 52.98 63.1999C53.124 63.6079 53.316 63.9079 53.556 64.0999C53.808 64.2919 54.09 64.3879 54.402 64.3879C54.786 64.3879 55.092 64.2499 55.32 63.9739C55.56 63.6979 55.746 63.3379 55.878 62.8939C56.022 62.4619 56.154 61.9759 56.274 61.4359C56.394 60.9079 56.532 60.3739 56.688 59.8339C56.856 59.3059 57.066 58.8199 57.318 58.3759C57.582 57.9439 57.93 57.5899 58.362 57.3139C58.794 57.0379 59.346 56.8999 60.018 56.8999C60.702 56.8999 61.326 57.0799 61.89 57.4399C62.466 57.8119 62.922 58.3699 63.258 59.1139C63.606 59.8699 63.78 60.8239 63.78 61.9759C63.78 62.7319 63.684 63.4819 63.492 64.2259C63.3 64.9699 63.024 65.6179 62.664 66.1699L60.846 65.4319C61.182 64.8679 61.428 64.2859 61.584 63.6859C61.752 63.0859 61.836 62.5099 61.836 61.9579C61.836 61.3099 61.758 60.7819 61.602 60.3739C61.446 59.9779 61.242 59.6839 60.99 59.4919C60.738 59.3119 60.45 59.2219 60.126 59.2219C59.742 59.2219 59.43 59.3539 59.19 59.6179C58.962 59.8939 58.782 60.2479 58.65 60.6799C58.518 61.1239 58.386 61.6159 58.254 62.1559C58.134 62.6959 57.996 63.2299 57.84 63.7579C57.684 64.2979 57.48 64.7839 57.228 65.2159C56.976 65.6599 56.634 66.0139 56.202 66.2779C55.77 66.5539 55.224 66.6919 54.564 66.6919C53.892 66.6919 53.268 66.5059 52.692 66.1339C52.128 65.7739 51.672 65.2159 51.324 64.4599C50.988 63.7039 50.82 62.7499 50.82 61.5979Z"/>
<path opacity="0.2" d="M50.82 33.5979C50.82 32.6139 50.958 31.6719 51.234 30.7719C51.522 29.8719 51.888 29.1579 52.332 28.6299L54.15 29.4399C53.754 29.9439 53.424 30.5679 53.16 31.3119C52.896 32.0559 52.764 32.8179 52.764 33.5979C52.764 34.2579 52.836 34.7919 52.98 35.1999C53.124 35.6079 53.316 35.9079 53.556 36.0999C53.808 36.2919 54.09 36.3879 54.402 36.3879C54.786 36.3879 55.092 36.2499 55.32 35.9739C55.56 35.6979 55.746 35.3379 55.878 34.8939C56.022 34.4619 56.154 33.9759 56.274 33.4359C56.394 32.9079 56.532 32.3739 56.688 31.8339C56.856 31.3059 57.066 30.8199 57.318 30.3759C57.582 29.9439 57.93 29.5899 58.362 29.3139C58.794 29.0379 59.346 28.8999 60.018 28.8999C60.702 28.8999 61.326 29.0799 61.89 29.4399C62.466 29.8119 62.922 30.3699 63.258 31.1139C63.606 31.8699 63.78 32.8239 63.78 33.9759C63.78 34.7319 63.684 35.4819 63.492 36.2259C63.3 36.9699 63.024 37.6179 62.664 38.1699L60.846 37.4319C61.182 36.8679 61.428 36.2859 61.584 35.6859C61.752 35.0859 61.836 34.5099 61.836 33.9579C61.836 33.3099 61.758 32.7819 61.602 32.3739C61.446 31.9779 61.242 31.6839 60.99 31.4919C60.738 31.3119 60.45 31.2219 60.126 31.2219C59.742 31.2219 59.43 31.3539 59.19 31.6179C58.962 31.8939 58.782 32.2479 58.65 32.6799C58.518 33.1239 58.386 33.6159 58.254 34.1559C58.134 34.6959 57.996 35.2299 57.84 35.7579C57.684 36.2979 57.48 36.7839 57.228 37.2159C56.976 37.6599 56.634 38.0139 56.202 38.2779C55.77 38.5539 55.224 38.6919 54.564 38.6919C53.892 38.6919 53.268 38.5059 52.692 38.1339C52.128 37.7739 51.672 37.2159 51.324 36.4599C50.988 35.7039 50.82 34.7499 50.82 33.5979Z"/>
<path opacity="0.1" d="M50.82 5.59794C50.82 4.61394 50.958 3.67194 51.234 2.77194C51.522 1.87194 51.888 1.15794 52.332 0.629938L54.15 1.43994C53.754 1.94394 53.424 2.56794 53.16 3.31194C52.896 4.05594 52.764 4.81794 52.764 5.59794C52.764 6.25794 52.836 6.79194 52.98 7.19994C53.124 7.60794 53.316 7.90794 53.556 8.09994C53.808 8.29194 54.09 8.38794 54.402 8.38794C54.786 8.38794 55.092 8.24994 55.32 7.97394C55.56 7.69794 55.746 7.33794 55.878 6.89394C56.022 6.46194 56.154 5.97594 56.274 5.43594C56.394 4.90794 56.532 4.37394 56.688 3.83394C56.856 3.30594 57.066 2.81994 57.318 2.37594C57.582 1.94394 57.93 1.58994 58.362 1.31394C58.794 1.03794 59.346 0.899938 60.018 0.899938C60.702 0.899939 61.326 1.07994 61.89 1.43994C62.466 1.81194 62.922 2.36994 63.258 3.11394C63.606 3.86994 63.78 4.82394 63.78 5.97594C63.78 6.73194 63.684 7.48194 63.492 8.22594C63.3 8.96994 63.024 9.61794 62.664 10.1699L60.846 9.43194C61.182 8.86794 61.428 8.28594 61.584 7.68594C61.752 7.08594 61.836 6.50994 61.836 5.95794C61.836 5.30994 61.758 4.78194 61.602 4.37394C61.446 3.97794 61.242 3.68394 60.99 3.49194C60.738 3.31194 60.45 3.22194 60.126 3.22194C59.742 3.22194 59.43 3.35394 59.19 3.61794C58.962 3.89394 58.782 4.24794 58.65 4.67994C58.518 5.12394 58.386 5.61594 58.254 6.15594C58.134 6.69594 57.996 7.22994 57.84 7.75794C57.684 8.29794 57.48 8.78394 57.228 9.21594C56.976 9.65994 56.634 10.0139 56.202 10.2779C55.77 10.5539 55.224 10.6919 54.564 10.6919C53.892 10.6919 53.268 10.5059 52.692 10.1339C52.128 9.77394 51.672 9.21594 51.324 8.45994C50.988 7.70394 50.82 6.74994 50.82 5.59794Z"/>
<rect x="53" y="186" width="12" height="12" rx="6" fill="#D2286F"/>
</svg>

<svg width="115" height="198" viewBox="0 0 115 198" xmlns="http://www.w3.org/2000/svg"><path d="M50.82 92.598c0-.984.138-1.926.414-2.826.288-.9.654-1.614 1.098-2.142l1.818.81c-.396.504-.726 1.128-.99 1.872a6.788 6.788 0 00-.396 2.286c0 .66.072 1.194.216 1.602.144.408.336.708.576.9.252.192.534.288.846.288.384 0 .69-.138.918-.414.24-.276.426-.636.558-1.08.144-.432.276-.918.396-1.458.12-.528.258-1.062.414-1.602a7.632 7.632 0 01.63-1.458 3.269 3.269 0 011.044-1.062c.432-.276.984-.414 1.656-.414.684 0 1.308.18 1.872.54.576.372 1.032.93 1.368 1.674.348.756.522 1.71.522 2.862a8.97 8.97 0 01-.288 2.25c-.192.744-.468 1.392-.828 1.944l-1.818-.738a6.693 6.693 0 00.738-1.746c.168-.6.252-1.176.252-1.728 0-.648-.078-1.176-.234-1.584-.156-.396-.36-.69-.612-.882a1.45 1.45 0 00-.864-.27c-.384 0-.696.132-.936.396-.228.276-.408.63-.54 1.062-.132.444-.264.936-.396 1.476-.12.54-.258 1.074-.414 1.602a6.414 6.414 0 01-.612 1.458 2.903 2.903 0 01-1.026 1.062c-.432.276-.978.414-1.638.414a3.385 3.385 0 01-1.872-.558c-.564-.36-1.02-.918-1.368-1.674-.336-.756-.504-1.71-.504-2.862zm.18 12.494h10.62v-4.176h1.98v10.692h-1.98v-4.176H51v-2.34zm0 13.875h4.986l-1.44.522 9.054-5.472v2.502l-7.29 4.392v-1.404l7.29 4.428v2.304l-9.054-5.472 1.44.54H51v-2.34zm0 11.346h12.6v2.34H52.98v6.588H51v-8.928zm7.362 15.636v6.264h-1.926v-6.264h1.926zm-5.4.18v7.11H51v-9.45h12.6v9.198h-1.962v-6.858h-8.676z"/><path opacity=".5" d="M50.82 61.598c0-.984.138-1.926.414-2.826.288-.9.654-1.614 1.098-2.142l1.818.81c-.396.504-.726 1.128-.99 1.872a6.788 6.788 0 00-.396 2.286c0 .66.072 1.194.216 1.602.144.408.336.708.576.9.252.192.534.288.846.288.384 0 .69-.138.918-.414.24-.276.426-.636.558-1.08.144-.432.276-.918.396-1.458.12-.528.258-1.062.414-1.602a7.632 7.632 0 01.63-1.458 3.269 3.269 0 011.044-1.062c.432-.276.984-.414 1.656-.414.684 0 1.308.18 1.872.54.576.372 1.032.93 1.368 1.674.348.756.522 1.71.522 2.862a8.97 8.97 0 01-.288 2.25c-.192.744-.468 1.392-.828 1.944l-1.818-.738a6.693 6.693 0 00.738-1.746c.168-.6.252-1.176.252-1.728 0-.648-.078-1.176-.234-1.584-.156-.396-.36-.69-.612-.882a1.45 1.45 0 00-.864-.27c-.384 0-.696.132-.936.396-.228.276-.408.63-.54 1.062-.132.444-.264.936-.396 1.476-.12.54-.258 1.074-.414 1.602a6.414 6.414 0 01-.612 1.458 2.903 2.903 0 01-1.026 1.062c-.432.276-.978.414-1.638.414a3.385 3.385 0 01-1.872-.558c-.564-.36-1.02-.918-1.368-1.674-.336-.756-.504-1.71-.504-2.862z"/><path opacity=".2" d="M50.82 33.598c0-.984.138-1.926.414-2.826.288-.9.654-1.614 1.098-2.142l1.818.81c-.396.504-.726 1.128-.99 1.872a6.788 6.788 0 00-.396 2.286c0 .66.072 1.194.216 1.602.144.408.336.708.576.9.252.192.534.288.846.288.384 0 .69-.138.918-.414.24-.276.426-.636.558-1.08.144-.432.276-.918.396-1.458.12-.528.258-1.062.414-1.602a7.632 7.632 0 01.63-1.458 3.269 3.269 0 011.044-1.062c.432-.276.984-.414 1.656-.414.684 0 1.308.18 1.872.54.576.372 1.032.93 1.368 1.674.348.756.522 1.71.522 2.862a8.97 8.97 0 01-.288 2.25c-.192.744-.468 1.392-.828 1.944l-1.818-.738a6.693 6.693 0 00.738-1.746c.168-.6.252-1.176.252-1.728 0-.648-.078-1.176-.234-1.584-.156-.396-.36-.69-.612-.882a1.45 1.45 0 00-.864-.27c-.384 0-.696.132-.936.396-.228.276-.408.63-.54 1.062-.132.444-.264.936-.396 1.476-.12.54-.258 1.074-.414 1.602a6.414 6.414 0 01-.612 1.458 2.903 2.903 0 01-1.026 1.062c-.432.276-.978.414-1.638.414a3.385 3.385 0 01-1.872-.558c-.564-.36-1.02-.918-1.368-1.674-.336-.756-.504-1.71-.504-2.862z"/><path opacity=".1" d="M50.82 5.598c0-.984.138-1.926.414-2.826.288-.9.654-1.614 1.098-2.142l1.818.81c-.396.504-.726 1.128-.99 1.872a6.788 6.788 0 00-.396 2.286c0 .66.072 1.194.216 1.602.144.408.336.708.576.9.252.192.534.288.846.288.384 0 .69-.138.918-.414.24-.276.426-.636.558-1.08.144-.432.276-.918.396-1.458.12-.528.258-1.062.414-1.602a7.632 7.632 0 01.63-1.458 3.269 3.269 0 011.044-1.062c.432-.276.984-.414 1.656-.414.684 0 1.308.18 1.872.54.576.372 1.032.93 1.368 1.674.348.756.522 1.71.522 2.862a8.97 8.97 0 01-.288 2.25c-.192.744-.468 1.392-.828 1.944l-1.818-.738a6.693 6.693 0 00.738-1.746c.168-.6.252-1.176.252-1.728 0-.648-.078-1.176-.234-1.584-.156-.396-.36-.69-.612-.882a1.45 1.45 0 00-.864-.27c-.384 0-.696.132-.936.396-.228.276-.408.63-.54 1.062-.132.444-.264.936-.396 1.476-.12.54-.258 1.074-.414 1.602a6.414 6.414 0 01-.612 1.458 2.903 2.903 0 01-1.026 1.062c-.432.276-.978.414-1.638.414a3.385 3.385 0 01-1.872-.558c-.564-.36-1.02-.918-1.368-1.674-.336-.756-.504-1.71-.504-2.862z"/><rect x="53" y="186" width="12" height="12" rx="6" fill="#D2286F"/></svg>
